icons/svg/old_road_shields/h_tru_shield6.svg

<?xml version="1.0" encoding="utf-8"?>
<!-- Generator: Adobe Illustrator 16.0.4, SVG Export Plug-In . SVG Version: 6.00 Build 0)  -->
<!DOCTYPE svg PUBLIC "-//W3C//DTD SVG 1.1//EN" "http://www.w3.org/Graphics/SVG/1.1/DTD/svg11.dtd">
<svg version="1.1" id="Слой_1" xmlns="http://www.w3.org/2000/svg" xmlns:xlink="http://www.w3.org/1999/xlink" x="0px" y="0px"
	 width="52.743px" height="16.57px" viewBox="0 0 52.743 16.57" enable-background="new 0 0 52.743 16.57" xml:space="preserve">
<path fill-rule="evenodd" clip-rule="evenodd" fill="#E7687D" d="M7.829,0h37.086c4.314,0,7.828,3.521,7.828,7.842v0.886
	c0,4.323-3.514,7.842-7.828,7.842H7.829C3.514,16.571,0,13.051,0,8.728V7.842C0,3.521,3.514,0,7.829,0L7.829,0z"/>
<path fill-rule="evenodd" clip-rule="evenodd" fill="#FFFFFF" d="M7.885,1.06h37.029c3.715,0,6.771,3.062,6.771,6.811v0.772
	c0,3.75-3.057,6.811-6.771,6.811H7.885c-3.714,0-6.771-3.061-6.771-6.811V7.87C1.114,4.121,4.171,1.06,7.885,1.06L7.885,1.06z"/>
<path fill-rule="evenodd" clip-rule="evenodd" fill="#E7687D" d="M8.228,2.433h36.286c3.057,0,5.543,2.49,5.543,5.552v0.63
	c0,3.034-2.486,5.522-5.543,5.522H8.228c-3.057,0-5.543-2.488-5.543-5.522v-0.63C2.685,4.923,5.171,2.433,8.228,2.433L8.228,2.433z"
	/>
</svg>

<svg width="53" height="17" viewBox="0 0 53 17" fill="none" xmlns="http://www.w3.org/2000/svg">
<g clip-path="url(#clip0)">
<path fill-rule="evenodd" clip-rule="evenodd" d="M7.829 0H44.915C49.229 0 52.743 3.521 52.743 7.842V8.728C52.743 13.051 49.229 16.57 44.915 16.57H7.829C3.514 16.571 0 13.051 0 8.728V7.842C0 3.521 3.514 0 7.829 0Z" fill="#E7687D"/>
<path fill-rule="evenodd" clip-rule="evenodd" d="M7.885 1.06H44.914C48.629 1.06 51.685 4.122 51.685 7.871V8.643C51.685 12.393 48.628 15.454 44.914 15.454H7.885C4.171 15.454 1.114 12.393 1.114 8.643V7.87C1.114 4.121 4.171 1.06 7.885 1.06Z" fill="white"/>
<path fill-rule="evenodd" clip-rule="evenodd" d="M8.228 2.43301H44.514C47.571 2.43301 50.057 4.92301 50.057 7.98501V8.61501C50.057 11.649 47.571 14.137 44.514 14.137H8.228C5.171 14.137 2.685 11.649 2.685 8.61501V7.98501C2.685 4.92301 5.171 2.43301 8.228 2.43301Z" fill="#E7687D"/>
</g>
<defs>
<clipPath id="clip0">
<path d="M0 0H52.743V16.57H0V0Z" fill="white"/>
</clipPath>
</defs>
</svg>
